X:108
U: ~ = !turn!
%%topmargin 3cm
T:The King's Favorite
B:Traditional Irish Fiddle Tunes. Randy Miller and Jack Perron.
Z:Transcribed by Ralph Palmer
R:Jig
M:6/8
L:1/8
K:Bb
dcB {/c}BAB | GBe FBd | EGc DFB | cAF gfe |
d2 B {/c}BAB | GBe FBd | EGc DFB | cAF B2 c ::
dBG {/A}G^FG | dBG BA^G | A^FD cAF | ded cBA | dBG {/A}G^FG |
dBG BA^G | [1 A^FD ded | cBA GAB/2c/2 :| [2 A^FD dfe | dcB AGF |]
